X: 11112
T: ANOTHER CUP AND THEN
C: Dibdin.
Q: "Moderate."
%R: march, reel
B: W. Hamilton "Universal Tune-Book" Vol. 1 Glasgow 1844 p.111 #2
S: http://imslp.org/wiki/Hamilton's_Universal_Tune-Book_(Various)
Z: 2016 John Chambers <jc:trillian.mit.edu>
N: Corrected wrong bar placement between bars 12,13.
M: 2/4
L: 1/8
K: Eb
% - - - - - - - - - - - - - - - - - - - - - - - - -
B |\
eBGc | BGEG | BBeg | gf zB |\
eBGc | BGEG | Bgfd | fe zg |\
bafd | geBG | BAFD | E2ze |\
F=Acf | fgec |
B=A fA | B2 zB |\
Bcde | fdcB | afge | df zB |\
edcB | cAGF | agfe | df zB |\
Bdfa | gedf | Bdfa | ge(df) |
B2 zB/B/ | d2f2 | bB Hza | gfed |\
e2za | gfed | e2za | gfed |\
e2z2 | z2g2 | B2z2 | z2zB |\
ge2 |]
% - - - - - - - - - - - - - - - - - - - - - - - - -

%%sep 1 1 500
%%sep 1 1 500

